X:1124
T:Twine weel the Plaiden.
M:C
L:1/16
Q:1/4=80 "Slow"
N:bar 1 is printed |F2A2 GFED E2FA B6c2|
N:bar 7 is printed |d2de {e}d2cB {c}B2A2 Hf4ed|
Z:Jack Campin * www.campin.me.uk * 2009
K:D
DE   |F2A2    GFED    E2FA  B3`c|A3B    BAGF    A4     D2DE|
      F2FA    GFED    E2FA  B3`B|A3B    ABdF    A4     D2 :|
AB/c/|d3`e    d2cB    dcBA  A2Bc|d3e {e}d2cB {B}e4     A2Bc|
      d2de {e}d2cB {c}B2A2 Hf2ed|d3B    BAdF    E4 {DE}D2 :|
<end>
<start>
